Flat-Remix-Blue/mimetypes/scalable/text-x-install.svg

<svg xmlns="http://www.w3.org/2000/svg" xmlns:xlink="http://www.w3.org/1999/xlink" width="36pt" height="36pt" version="1.1" viewBox="0 0 36 36"> <defs> <clipPath id="clip1"> <path d="M 20 2 L 31 2 L 31 13 L 20 13 Z M 20 2"/> </clipPath> <clipPath id="clip2"> <path d="M 20.515625 2.625 L 30.328125 12.4375 L 22.023438 12.4375 C 21.292969 12.4375 20.515625 11.660156 20.515625 10.929688 Z M 20.515625 2.625"/> </clipPath> <image id="image6" width="36" height="36" xlink:href="data:image/png;base64,iVBORw0KGgoAAAANSUhEUgAAACQAAAAkCAYAAADhAJiYAAAABmJLR0QA/wD/AP+gvaeTAAAAmklEQVRYhe3T0QqCQBBG4aOtYEoUvf9Lildltl00C4tkbBeTIP+BAUEYP1YW1Pcqh53B9kbgaVPcwQF0tAmGSrMZ6AKcDQXw+AUVHEAtcAUaewYYgYmC3+cBCkAPnDJQMcoDVNnebgEqQnmAclTz4d0I3P4JStc9AjXvk4qLWQV53LLeEOl05gw4A3dgcPiuUkoppZRSSqk99gLWvSJpuDnlsAAAAABJRU5ErkJggg=="/> </defs> <g> <path style="fill:rgb(4.705%,63.137%,36.862%);fill-opacity:0.996078" d="M 7.347656 3.152344 C 6.675781 3.152344 6.042969 3.785156 6.042969 4.457031 L 6.042969 31.847656 C 6.042969 32.480469 6.714844 33.152344 7.347656 33.152344 L 28.21875 33.152344 C 28.851562 33.152344 29.523438 32.480469 29.523438 31.847656 L 29.523438 11.632812 L 21.042969 3.152344 Z M 7.347656 3.152344"/> <path style="fill:rgb(100.000%,100.000%,100.000%)" d="M 16.042969 14.085938 L 19.957031 14.085938 L 19.957031 19.304688 L 21.261719 19.304688 L 18 21.914062 L 14.738281 19.304688 L 16.042969 19.304688 Z M 16.042969 14.085938"/> <path style="fill:rgb(100.000%,100.000%,100.000%)" d="M 12.78125 23.871094 L 12.78125 25.175781 C 12.78125 25.824219 12.78125 25.824219 13.433594 25.824219 L 22.566406 25.824219 C 23.21875 25.824219 23.21875 25.828125 23.21875 25.175781 L 23.21875 23.871094 C 23.21875 23.21875 23.21875 23.21875 22.566406 23.21875 L 13.433594 23.21875 C 12.78125 23.21875 12.78125 23.21875 12.78125 23.871094 Z M 18 23.871094 L 22.566406 23.871094 L 22.566406 25.175781 L 18 25.175781 Z M 18 23.871094"/> <g clip-path="url(#clip1)"> <g clip-path="url(#clip2)"> <use xlink:href="#image6"/> </g> </g> <path style="fill:rgb(32.941%,74.117%,55.686%)" d="M 21.042969 3.152344 L 29.523438 11.632812 L 22.347656 11.632812 C 21.714844 11.632812 21.042969 10.960938 21.042969 10.328125 Z M 21.042969 3.152344"/> </g> </svg>

<svg width="36pt" height="36pt" version="1.1" viewBox="0 0 36 36" xmlns="http://www.w3.org/2000/svg"><defs><filter id="a" x="-.192" y="-.192" width="1.384" height="1.384" color-interpolation-filters="sRGB"><feGaussianBlur stdDeviation="0.67843748"/></filter></defs><path d="m7.3477 3.1523c-0.67188 0-1.3047 0.63281-1.3047 1.3047v27.391c0 0.63281 0.67188 1.3047 1.3047 1.3047h20.871c0.63281 0 1.3047-0.67188 1.3047-1.3047v-20.215l-8.4805-8.4805z" fill="#0ba05d" fill-opacity=".99608"/><path d="m16.043 14.086h3.9141v5.2188h1.3047l-3.2617 2.6094-3.2617-2.6094h1.3047z" fill="#fff"/><path d="m12.781 23.871v1.3047c0 0.64844 0 0.64844 0.65234 0.64844h9.1328c0.65234 0 0.65234 0.003906 0.65234-0.64844v-1.3047c0-0.65234 0-0.65234-0.65234-0.65234h-9.1328c-0.65234 0-0.65234 0-0.65234 0.65234zm5.2188 0h4.5664v1.3047h-4.5664z" fill="#fff"/><path d="m20.668 3.5272 8.4805 8.4805h-7.1758c-0.63281 0-1.3047-0.67187-1.3047-1.3047z" filter="url(#a)" opacity=".2"/><path d="m21.043 3.1523 8.4805 8.4805h-7.1758c-0.63281 0-1.3047-0.67187-1.3047-1.3047z" fill="#53bc8d"/></svg>
